X:764
T:Boganuadh, The
T:The New Bob
B:MacKenzie's National Dance Music of Scotland, Bk 2
Z:Nigel Gatherer
M:4/4
L:1/8
K:Bm
f |: "Bm"Bcde f2 e | "A"c<AeA aAec | 
     "Bm"Bcde "D"fa"Em"ea | "F#m"c<Aa>c "Bm"B/B/B f2 :|
     "Bm"B/B/B b^a "D"bBbf | "F#m"=a>baf de"D"fd |
     "C#m"ef"D"ab fa"Em"ea | "F#m"c<Aa>c "Bm"B/B/B f2 :|
<end>
<start>
